images/img-card-01.svg

<svg width="940" height="400" viewBox="0 0 940 400" fill="none" xmlns="http://www.w3.org/2000/svg">
<rect width="940" height="400" fill="url(#paint0_linear_16_9)"/>
<path d="M353.4 220H364.92L339.8 164H328.28L303.16 220H314.6L319.4 209.44H348.68L353.4 220ZM344.44 199.6H323.64L334.04 175.76L344.44 199.6ZM408.502 205.68C404.822 209.36 399.302 211.36 394.422 211.36C380.582 211.36 375.222 201.68 375.142 192.4C375.062 183.04 380.902 172.96 394.422 172.96C399.302 172.96 404.262 174.64 407.942 178.24L414.982 171.44C409.222 165.76 402.022 162.88 394.422 162.88C374.182 162.88 364.662 177.76 364.742 192.4C364.822 206.96 373.622 221.28 394.422 221.28C402.502 221.28 409.942 218.64 415.702 212.96L408.502 205.68ZM461.314 205.68C457.634 209.36 452.114 211.36 447.234 211.36C433.394 211.36 428.034 201.68 427.954 192.4C427.874 183.04 433.714 172.96 447.234 172.96C452.114 172.96 457.074 174.64 460.754 178.24L467.794 171.44C462.034 165.76 454.834 162.88 447.234 162.88C426.994 162.88 417.474 177.76 417.554 192.4C417.634 206.96 426.434 221.28 447.234 221.28C455.314 221.28 462.754 218.64 468.514 212.96L461.314 205.68Z" fill="white"/>
<path d="M518.379 186C516.139 182.08 511.099 179.6 505.819 179.6C494.299 179.52 485.259 186.64 485.259 200.24C485.259 214.08 493.899 221.28 505.579 221.2C509.979 221.12 516.139 218.88 518.379 214.24L518.859 220H528.059V180.56H518.699L518.379 186ZM506.699 188.32C522.059 188.32 522.059 212.24 506.699 212.24C500.219 212.24 495.019 207.76 495.019 200.24C495.019 192.72 500.219 188.32 506.699 188.32ZM558.165 211.52C551.525 211.52 546.965 206.48 546.965 200.32C546.965 194.16 551.125 189.12 558.165 189.12C565.205 189.12 569.365 194.16 569.365 200.32C569.365 206.48 564.805 211.52 558.165 211.52ZM546.085 236.48V215.36C548.885 219.68 555.045 220.96 559.205 220.96C571.845 220.96 579.125 211.84 579.125 200.32C579.125 188.72 571.045 179.68 558.885 179.68C554.405 179.68 549.125 181.6 546.085 186L545.445 180.56H536.325V236.48H546.085ZM608.165 211.52C601.525 211.52 596.965 206.48 596.965 200.32C596.965 194.16 601.125 189.12 608.165 189.12C615.205 189.12 619.365 194.16 619.365 200.32C619.365 206.48 614.805 211.52 608.165 211.52ZM596.085 236.48V215.36C598.885 219.68 605.045 220.96 609.205 220.96C621.845 220.96 629.125 211.84 629.125 200.32C629.125 188.72 621.045 179.68 608.885 179.68C604.405 179.68 599.125 181.6 596.085 186L595.445 180.56H586.325V236.48H596.085Z" fill="black"/>
<defs>
<linearGradient id="paint0_linear_16_9" x1="-7.00354e-06" y1="200" x2="940" y2="200" gradientUnits="userSpaceOnUse">
<stop stop-color="#63258E"/>
<stop offset="1" stop-color="#1557D2"/>
</linearGradient>
</defs>
</svg>

<svg width="940" height="400" fill="none" xmlns="http://www.w3.org/2000/svg"><path fill="url(#paint0_linear_16_9)" d="M0 0h940v400H0z"/><path d="M353.4 220h11.52l-25.12-56h-11.52l-25.12 56h11.44l4.8-10.56h29.28L353.4 220zm-8.96-20.4h-20.8l10.4-23.84 10.4 23.84zm64.062 6.08c-3.68 3.68-9.2 5.68-14.08 5.68-13.84 0-19.2-9.68-19.28-18.96-.08-9.36 5.76-19.44 19.28-19.44 4.88 0 9.84 1.68 13.52 5.28l7.04-6.8c-5.76-5.68-12.96-8.56-20.56-8.56-20.24 0-29.76 14.88-29.68 29.52.08 14.56 8.88 28.88 29.68 28.88 8.08 0 15.52-2.64 21.28-8.32l-7.2-7.28zm52.812 0c-3.68 3.68-9.2 5.68-14.08 5.68-13.84 0-19.2-9.68-19.28-18.96-.08-9.36 5.76-19.44 19.28-19.44 4.88 0 9.84 1.68 13.52 5.28l7.04-6.8c-5.76-5.68-12.96-8.56-20.56-8.56-20.24 0-29.76 14.88-29.68 29.52.08 14.56 8.88 28.88 29.68 28.88 8.08 0 15.52-2.64 21.28-8.32l-7.2-7.28z" fill="#fff"/><path d="M518.379 186c-2.24-3.92-7.28-6.4-12.56-6.4-11.52-.08-20.56 7.04-20.56 20.64 0 13.84 8.64 21.04 20.32 20.96 4.4-.08 10.56-2.32 12.8-6.96l.48 5.76h9.2v-39.44h-9.36l-.32 5.44zm-11.68 2.32c15.36 0 15.36 23.92 0 23.92-6.48 0-11.68-4.48-11.68-12s5.2-11.92 11.68-11.92zm51.466 23.2c-6.64 0-11.2-5.04-11.2-11.2 0-6.16 4.16-11.2 11.2-11.2 7.04 0 11.2 5.04 11.2 11.2 0 6.16-4.56 11.2-11.2 11.2zm-12.08 24.96v-21.12c2.8 4.32 8.96 5.6 13.12 5.6 12.64 0 19.92-9.12 19.92-20.64 0-11.6-8.08-20.64-20.24-20.64-4.48 0-9.76 1.92-12.8 6.32l-.64-5.44h-9.12v55.92h9.76zm62.08-24.96c-6.64 0-11.2-5.04-11.2-11.2 0-6.16 4.16-11.2 11.2-11.2 7.04 0 11.2 5.04 11.2 11.2 0 6.16-4.56 11.2-11.2 11.2zm-12.08 24.96v-21.12c2.8 4.32 8.96 5.6 13.12 5.6 12.64 0 19.92-9.12 19.92-20.64 0-11.6-8.08-20.64-20.24-20.64-4.48 0-9.76 1.92-12.8 6.32l-.64-5.44h-9.12v55.92h9.76z" fill="#000"/><defs><linearGradient id="paint0_linear_16_9" x1="0" y1="200" x2="940" y2="200" gradientUnits="userSpaceOnUse"><stop stop-color="#63258E"/><stop offset="1" stop-color="#1557D2"/></linearGradient></defs></svg>
